app/dist/common/images/huaneng-power.svg

<svg height="18" width="18" xmlns="http://www.w3.org/2000/svg"><path d="m0 0h18v18h-18z" fill="#1573c4"/><path d="m5.922 4-.276 1.452 3.044 1.27.524-2.722zm4.787 0-1.927 10h3.292l1.926-10zm-5.093 1.594-.171.893 4.313 1.797.067-.36zm-.196 1.018-.172.894 4.317 1.797.067-.36-4.212-2.33zm-.193 1.02-.172.893 4.314 1.802.07-.36-4.211-2.337zm-.197 1.022-1.03 5.346h3.291l.712-3.7-2.973-1.644z" fill="#fff"/></svg>

<!-- by TradingView --><svg width="18" height="18" xmlns="http://www.w3.org/2000/svg"><path fill="#1573C4" d="M0 0h18v18H0z"/><path d="M5.922 4l-.276 1.452 3.044 1.27L9.214 4H5.922zm4.787 0L8.782 14h3.292L14 4h-3.291zM5.616 5.594l-.171.893 4.313 1.797.067-.36-4.209-2.33zM5.42 6.612l-.172.894 4.317 1.797.067-.36-4.212-2.33zm-.193 1.02l-.172.893 4.314 1.802.07-.36L5.228 7.63zM5.03 8.654L4 14h3.291l.712-3.7L5.03 8.656z" fill="#fff"/></svg>
